illustrations/assets/Login/il_axis_login_light.svg

<svg xmlns="http://www.w3.org/2000/svg" width="231" height="160" fill="none" viewBox="0 0 231 160">
  <path fill="#F0F0F0" d="M116.31 144.8c37.64 0 68.105-30.645 68.105-68.4551C184.415 38.5347 153.95 8 116.31 8 78.7807 8 48.2051 38.645 48.2051 76.4551c0 37.8099 30.5756 68.3449 68.1049 68.3449Z"/>
  <path fill="#EDE5DA" d="M38.3811 92.3646c2.5388 0 4.5256-1.9842 4.5256-4.5196 0-2.5354-1.9868-4.5196-4.5256-4.5196s-4.5256 1.9842-4.5256 4.5196c0 2.5354 2.0972 4.5196 4.5256 4.5196ZM33.8558 77.7036c1.6557 0 3.0907-1.433 3.0907-3.0865s-1.435-3.0866-3.0907-3.0866-3.0907 1.4331-3.0907 3.0866c0 1.7637 1.435 3.0865 3.0907 3.0865ZM195.785 103.719c3.201 0 5.74-2.536 5.74-5.7326 0-3.1968-2.539-5.7321-5.74-5.7321s-5.74 2.5353-5.74 5.7321c0 3.1966 2.539 5.7326 5.74 5.7326Z"/>
  <circle cx="114.767" cy="40.8371" r="2.6625" fill="#C4C4C4"/>
  <g filter="url(#filter0_d_3840_855)">
    <path fill="url(#paint0_linear_3840_855)" d="M166.189 133.474H66.2473c-3.7246 0-6.8284-3.077-6.8284-6.771V25.7591c0-3.6931 3.1038-6.7707 6.8284-6.7707h99.9417c3.724 0 6.828 3.0776 6.828 6.7707V126.703c0 3.694-3.104 6.771-6.828 6.771Z"/>
  </g>
  <path fill="#EDE5DA" d="M115.076 56.8117c7.842 0 14.2-6.3575 14.2-14.1998s-6.358-14.1998-14.2-14.1998c-7.843 0-14.2 6.3575-14.2 14.1998s6.357 14.1998 14.2 14.1998Z"/>
  <path fill="#BCB9B3" d="M115.076 43.4994c2.941 0 5.325-2.384 5.325-5.3249 0-2.9408-2.384-5.3249-5.325-5.3249-2.941 0-5.325 2.3841-5.325 5.3249 0 2.9409 2.384 5.3249 5.325 5.3249ZM125.726 52.3786c-2.575 2.7324-6.196 4.4331-10.206 4.4331-4.011 0-7.632-1.7007-10.207-4.4331 1.422-4.1276 5.454-7.1042 10.207-7.1042 4.752 0 8.784 2.9766 10.206 7.1042Z"/>
  <path fill="#EDE5DA" d="M153.749 78.9988H76.6725c-.9212 0-1.8424-1.024-1.8424-2.048v-9.2162c0-1.0241.9212-2.0481 1.8424-2.0481h77.0765c.921 0 1.842 1.024 1.842 2.0481v9.2162c0 1.024-.921 2.048-1.842 2.048ZM153.749 98.5237H76.6725c-.9212 0-1.8424-1.024-1.8424-2.048v-9.2162c0-1.0241.9212-2.0481 1.8424-2.0481h77.0765c.921 0 1.842 1.024 1.842 2.0481v9.2162c0 1.024-.921 2.048-1.842 2.048ZM153.675 106.511h-28.116c-.958 0-1.917.731-1.917 2.193v8.039c0 1.096.639 2.193 1.917 2.193h28.116c.958 0 1.917-.731 1.917-2.193v-8.039c0-1.158-.959-2.193-1.917-2.193Z"/>
  <path fill="#BCB9B3" d="M147.266 111.836h-14.41c-.613 0-1.226.444-1.226.888 0 .443.613.887 1.226.887h14.41c.613 0 1.226-.444 1.226-.887 0-.666-.613-.888-1.226-.888ZM80.1548 71.0115h34.612v2.6625h-34.612z"/>
  <rect width="2.6625" height="2.6625" x="80.1548" y="90.5361" fill="#BCB9B3" rx="1.3312"/>
  <rect width="2.6625" height="2.6625" x="85.48" y="90.5361" fill="#BCB9B3" rx="1.3312"/>
  <rect width="2.6625" height="2.6625" x="90.8052" y="90.5361" fill="#BCB9B3" rx="1.3312"/>
  <rect width="2.6625" height="2.6625" x="96.1299" y="90.5361" fill="#BCB9B3" rx="1.3312"/>
  <rect width="2.6625" height="2.6625" x="100.567" y="90.5361" fill="#BCB9B3" rx="1.3312"/>
  <rect width="2.6625" height="2.6625" x="105.892" y="90.5361" fill="#BCB9B3" rx="1.3312"/>
  <defs>
    <linearGradient id="paint0_linear_3840_855" x1="116.181" x2="116.181" y1="16.3402" y2="134.708" gradientUnits="userSpaceOnUse">
      <stop stop-color="#FDFEFF"/>
      <stop offset=".9964" stop-color="#F5F2EC"/>
    </linearGradient>
    <filter id="filter0_d_3840_855" width="135.198" height="136.086" x="48.6189" y="15.3884" color-interpolation-filters="sRGB" filterUnits="userSpaceOnUse">
      <feFlood flood-opacity="0" result="BackgroundImageFix"/>
      <feColorMatrix in="SourceAlpha" result="hardAlpha" values="0 0 0 0 0 0 0 0 0 0 0 0 0 0 0 0 0 0 127 0"/>
      <feOffset dy="7.2"/>
      <feGaussianBlur stdDeviation="5.4"/>
      <feColorMatrix values="0 0 0 0 0.576471 0 0 0 0 0.501961 0 0 0 0 0.396078 0 0 0 0.17 0"/>
      <feBlend in2="BackgroundImageFix" result="effect1_dropShadow_3840_855"/>
      <feBlend in="SourceGraphic" in2="effect1_dropShadow_3840_855" result="shape"/>
    </filter>
  </defs>
</svg>

<svg width="231" height="160" viewBox="0 0 231 160" fill="none" xmlns="http://www.w3.org/2000/svg">
<path d="M116.31 144.8C153.95 144.8 184.415 114.155 184.415 76.3449C184.415 38.5347 153.95 8 116.31 8C78.7807 8 48.2051 38.645 48.2051 76.4551C48.2051 114.265 78.7807 144.8 116.31 144.8Z" fill="#EBEBEB"/>
<path d="M38.3811 92.3646C40.9199 92.3646 42.9067 90.3804 42.9067 87.845C42.9067 85.3096 40.9199 83.3254 38.3811 83.3254C35.8423 83.3254 33.8555 85.3096 33.8555 87.845C33.8555 90.3804 35.9527 92.3646 38.3811 92.3646Z" fill="#EDE5DA"/>
<path d="M33.8558 77.7036C35.5115 77.7036 36.9465 76.2706 36.9465 74.6171C36.9465 72.9636 35.5115 71.5305 33.8558 71.5305C32.2001 71.5305 30.7651 72.9636 30.7651 74.6171C30.7651 76.3808 32.2001 77.7036 33.8558 77.7036Z" fill="#EDE5DA"/>
<path d="M195.785 103.719C198.986 103.719 201.525 101.183 201.525 97.9864C201.525 94.7896 198.986 92.2543 195.785 92.2543C192.584 92.2543 190.045 94.7896 190.045 97.9864C190.045 101.183 192.584 103.719 195.785 103.719Z" fill="#EDE5DA"/>
<circle cx="114.767" cy="40.8371" r="2.66246" fill="#C4C4C4"/>
<g filter="url(#filter0_d_3840_855)">
<path d="M166.189 133.474H66.2473C62.5227 133.474 59.4189 130.397 59.4189 126.703V25.7591C59.4189 22.066 62.5227 18.9884 66.2473 18.9884H166.189C169.913 18.9884 173.017 22.066 173.017 25.7591V126.703C173.017 130.397 169.913 133.474 166.189 133.474Z" fill="url(#paint0_linear_3840_855)"/>
</g>
<path d="M115.076 56.8117C122.918 56.8117 129.276 50.4542 129.276 42.6119C129.276 34.7696 122.918 28.4121 115.076 28.4121C107.233 28.4121 100.876 34.7696 100.876 42.6119C100.876 50.4542 107.233 56.8117 115.076 56.8117Z" fill="#EDE5DA"/>
<path d="M115.076 43.4994C118.017 43.4994 120.401 41.1154 120.401 38.1745C120.401 35.2337 118.017 32.8496 115.076 32.8496C112.135 32.8496 109.751 35.2337 109.751 38.1745C109.751 41.1154 112.135 43.4994 115.076 43.4994Z" fill="#BCB9B3"/>
<path d="M125.726 52.3786C123.151 55.111 119.53 56.8117 115.52 56.8117C111.509 56.8117 107.888 55.111 105.313 52.3786C106.735 48.251 110.767 45.2744 115.52 45.2744C120.272 45.2744 124.304 48.251 125.726 52.3786Z" fill="#BCB9B3"/>
<path d="M153.749 78.9988H76.6725C75.7513 78.9988 74.8301 77.9748 74.8301 76.9508V67.7346C74.8301 66.7105 75.7513 65.6865 76.6725 65.6865H153.749C154.67 65.6865 155.591 66.7105 155.591 67.7346V76.9508C155.591 77.9748 154.67 78.9988 153.749 78.9988Z" fill="#EDE5DA"/>
<path d="M153.749 98.5237H76.6725C75.7513 98.5237 74.8301 97.4997 74.8301 96.4757V87.2595C74.8301 86.2354 75.7513 85.2114 76.6725 85.2114H153.749C154.67 85.2114 155.591 86.2354 155.591 87.2595V96.4757C155.591 97.4997 154.67 98.5237 153.749 98.5237Z" fill="#EDE5DA"/>
<path d="M153.675 106.511H125.559C124.601 106.511 123.642 107.242 123.642 108.704V116.743C123.642 117.839 124.281 118.936 125.559 118.936H153.675C154.633 118.936 155.592 118.205 155.592 116.743V108.704C155.592 107.546 154.633 106.511 153.675 106.511Z" fill="#EDE5DA"/>
<path d="M147.266 111.836H132.856C132.243 111.836 131.63 112.28 131.63 112.724C131.63 113.167 132.243 113.611 132.856 113.611H147.266C147.879 113.611 148.492 113.167 148.492 112.724C148.492 112.058 147.879 111.836 147.266 111.836Z" fill="#BCB9B3"/>
<rect x="80.1548" y="71.0115" width="34.612" height="2.66246" fill="#BCB9B3"/>
<rect x="80.1548" y="90.5361" width="2.66246" height="2.66246" rx="1.33123" fill="#BCB9B3"/>
<rect x="85.48" y="90.5361" width="2.66246" height="2.66246" rx="1.33123" fill="#BCB9B3"/>
<rect x="90.8052" y="90.5361" width="2.66246" height="2.66246" rx="1.33123" fill="#BCB9B3"/>
<rect x="96.1299" y="90.5361" width="2.66246" height="2.66246" rx="1.33123" fill="#BCB9B3"/>
<rect x="100.567" y="90.5361" width="2.66246" height="2.66246" rx="1.33123" fill="#BCB9B3"/>
<rect x="105.892" y="90.5361" width="2.66246" height="2.66246" rx="1.33123" fill="#BCB9B3"/>
<defs>
<filter id="filter0_d_3840_855" x="48.6189" y="15.3884" width="135.198" height="136.086" filterUnits="userSpaceOnUse" color-interpolation-filters="sRGB">
<feFlood flood-opacity="0" result="BackgroundImageFix"/>
<feColorMatrix in="SourceAlpha" type="matrix" values="0 0 0 0 0 0 0 0 0 0 0 0 0 0 0 0 0 0 127 0" result="hardAlpha"/>
<feOffset dy="7.2"/>
<feGaussianBlur stdDeviation="5.4"/>
<feColorMatrix type="matrix" values="0 0 0 0 0.576471 0 0 0 0 0.501961 0 0 0 0 0.396078 0 0 0 0.17 0"/>
<feBlend mode="normal" in2="BackgroundImageFix" result="effect1_dropShadow_3840_855"/>
<feBlend mode="normal" in="SourceGraphic" in2="effect1_dropShadow_3840_855" result="shape"/>
</filter>
<linearGradient id="paint0_linear_3840_855" x1="116.181" y1="16.3402" x2="116.181" y2="134.708" gradientUnits="userSpaceOnUse">
<stop stop-color="#FDFEFF"/>
<stop offset="0.9964" stop-color="#F5F2EC"/>
</linearGradient>
</defs>
</svg>
